X: 10337
T: Don Messer's Breakdown
R: reel
M: 4/4
K: Cmajor
FE|:ECEG .c2ea|(3gag ea gece|d^cde fdBd|=cdcA GAGF|
ECEG {B}c2ea|(3gag ea gece|d^cde fdBd|{B}=c2e2 cA (3G_GF:|
|:.E2.G2 (3cd^de2|g6 (3efg|.a2.g2 .f2ef|decd (3BcB A^F|
G2^FG BGBd|d[dg] zd [d2g2](3efg|.a2.g2 fdBd|(3cdc Bd cA (3G_GF:|

